icon-themes/sifr_svg/cmd/32/defaultnumbering.svg

<svg viewBox="0 0 32 32" xmlns="http://www.w3.org/2000/svg"><path d="m8 3c0 1.4-1.7 2-3 2v2h3v7h2v-11zm5 0v2h15v-2zm0 4v2h15v-2zm0 4v2h9v-2zm-5.5 7c-1.738647.0016-3.2125605 1.279185-3.4609375 3h2.0097656c.216145-.609303.7925581-1.016781 1.4394531-1.017578.6468951.000797 1.2233082.408275 1.4394532 1.017578l.0722656.5c.413826 1.896466-3 2.833333-5 4.5v3h7v-2h-5l.0859375-.189453c.217488-.479128 4.2436715-2.183926 4.5136715-3.410156.4-.4.400391-1.670391.400391-1.900391l-.041016-.5c-.248271-1.720082-1.721079-2.997459-3.458984-3zm5.5 0v2h15v-2zm0 4v2h15v-2zm0 4v2h7v-2z" fill="#555753"/></svg>

<?xml version="1.0" encoding="UTF-8" standalone="no"?>
<svg
   xmlns:dc="http://purl.org/dc/elements/1.1/"
   xmlns:cc="http://creativecommons.org/ns#"
   xmlns:rdf="http://www.w3.org/1999/02/22-rdf-syntax-ns#"
   xmlns:svg="http://www.w3.org/2000/svg"
   xmlns="http://www.w3.org/2000/svg"
   xmlns:sodipodi="http://sodipodi.sourceforge.net/DTD/sodipodi-0.dtd"
   xmlns:inkscape="http://www.inkscape.org/namespaces/inkscape"
   viewBox="0 0 32 32"
   version="1.1"
   id="svg8"
   sodipodi:docname="defaultnumbering.svg"
   inkscape:version="0.92.4 (unknown)">
  <metadata
     id="metadata14">
    <rdf:RDF>
      <cc:Work
         rdf:about="">
        <dc:format>image/svg+xml</dc:format>
        <dc:type
           rdf:resource="http://purl.org/dc/dcmitype/StillImage" />
        <dc:title></dc:title>
      </cc:Work>
    </rdf:RDF>
  </metadata>
  <defs
     id="defs12" />
  <sodipodi:namedview
     pagecolor="#ffffff"
     bordercolor="#666666"
     borderopacity="1"
     objecttolerance="10"
     gridtolerance="10"
     guidetolerance="10"
     inkscape:pageopacity="0"
     inkscape:pageshadow="2"
     inkscape:window-width="1366"
     inkscape:window-height="706"
     id="namedview10"
     showgrid="true"
     inkscape:zoom="14.75"
     inkscape:cx="13.929212"
     inkscape:cy="18.473351"
     inkscape:window-x="0"
     inkscape:window-y="0"
     inkscape:window-maximized="1"
     inkscape:current-layer="g6">
    <inkscape:grid
       type="xygrid"
       id="grid821" />
  </sodipodi:namedview>
  <g
     fill="#555753"
     id="g6">
    <path
       d="M 8 3 C 8 4.4 6.3 5 5 5 L 5 7 L 8 7 L 8 14 L 10 14 L 10 3 L 8 3 z M 13 3 L 13 5 L 28 5 L 28 3 L 13 3 z M 13 7 L 13 9 L 28 9 L 28 7 L 13 7 z M 13 11 L 13 13 L 22 13 L 22 11 L 13 11 z M 7.5 18 C 5.761353 18.0016 4.2874395 19.279185 4.0390625 21 L 6.0488281 21 C 6.2649731 20.390697 6.8413862 19.983219 7.4882812 19.982422 C 8.1351763 19.983219 8.7115894 20.390697 8.9277344 21 L 9 21.5 C 9.413826 23.396466 6 24.333333 4 26 L 4 29 L 11 29 L 11 27 L 6 27 L 6.0859375 26.810547 C 6.3034255 26.331419 10.329609 24.626621 10.599609 23.400391 C 10.999609 23.000391 11 21.73 11 21.5 L 10.958984 21 C 10.710713 19.279918 9.237905 18.002541 7.5 18 z M 13 18 L 13 20 L 28 20 L 28 18 L 13 18 z M 13 22 L 13 24 L 28 24 L 28 22 L 13 22 z M 13 26 L 13 28 L 20 28 L 20 26 L 13 26 z "
       id="path2" />
  </g>
</svg>
